dist/img/logo-light.svg

<svg width="235" height="64" viewBox="0 0 235 64" fill="none" xmlns="http://www.w3.org/2000/svg">
<path d="M43.0102 5.07491C43.0102 3.45316 44.337 2.13477 45.9691 2.13477C47.6013 2.13477 48.9281 3.45316 48.9281 5.07491C48.9281 9.48514 47.1316 13.4754 44.2196 16.3572C41.3077 19.2507 37.3037 21.0358 32.8653 21.0358C28.4269 21.0358 24.4112 19.2507 21.511 16.3572C18.5991 13.4637 16.8026 9.48514 16.8026 5.07491C16.8026 3.45316 18.1294 2.13477 19.7615 2.13477C21.3936 2.13477 22.7204 3.45316 22.7204 5.07491C22.7204 7.86339 23.8594 10.3835 25.6911 12.2036C27.5228 14.0237 30.0708 15.1555 32.8771 15.1555C35.6833 15.1555 38.2196 14.0237 40.0513 12.2036C41.883 10.3835 43.0102 7.86339 43.0102 5.07491Z" fill="white"/>
<path fill-rule="evenodd" clip-rule="evenodd" d="M32.8653 0C35.6246 0 37.8555 2.21679 37.8555 4.9586C37.8555 7.70041 35.6246 9.9172 32.8653 9.9172C30.1059 9.9172 27.875 7.70041 27.875 4.9586C27.875 2.21679 30.1059 0 32.8653 0Z" fill="#00D89E"/>
<path d="M43.0102 58.745C43.0102 60.3668 44.337 61.6852 45.9691 61.6852C47.6013 61.6852 48.9281 60.3668 48.9281 58.745C48.9281 54.3348 47.1316 50.3446 44.2196 47.4627C41.3077 44.5693 37.3037 42.7842 32.8653 42.7842C28.4269 42.7842 24.4112 44.5693 21.511 47.4627C18.5991 50.3562 16.8026 54.3465 16.8026 58.745C16.8026 60.3668 18.1294 61.6852 19.7615 61.6852C21.3936 61.6852 22.7204 60.3668 22.7204 58.745C22.7204 55.9565 23.8594 53.4364 25.6911 51.6047C27.5228 49.7846 30.0708 48.6528 32.8771 48.6528C35.6833 48.6528 38.2196 49.7846 40.0513 51.6047C41.883 53.4364 43.0102 55.9565 43.0102 58.745Z" fill="white"/>
<path fill-rule="evenodd" clip-rule="evenodd" d="M32.8653 63.82C35.6246 63.82 37.8555 61.6032 37.8555 58.8614C37.8555 56.1196 35.6246 53.9028 32.8653 53.9028C30.1059 53.9028 27.875 56.1196 27.875 58.8614C27.875 61.6032 30.1059 63.82 32.8653 63.82Z" fill="#00D89E"/>
<path d="M60.611 42.0023C62.2431 42.0023 63.57 43.3208 63.57 44.9425C63.57 46.5643 62.2431 47.8827 60.611 47.8827C56.1726 47.8827 52.1569 46.0975 49.2567 43.2041C46.3448 40.3106 44.5483 36.332 44.5483 31.9218C44.5483 27.5116 46.3448 23.5214 49.2567 20.6395C52.1687 17.746 56.1726 15.9609 60.611 15.9609C62.2431 15.9609 63.57 17.2794 63.57 18.9011C63.57 20.5229 62.2431 21.8413 60.611 21.8413C57.8047 21.8413 55.2685 22.973 53.4368 24.7931C51.6051 26.6132 50.4661 29.145 50.4661 31.9335C50.4661 34.7219 51.6051 37.2421 53.4368 39.0622C55.2685 40.8706 57.8165 42.0023 60.611 42.0023Z" fill="white"/>
<path fill-rule="evenodd" clip-rule="evenodd" d="M65.7187 31.9107C65.7187 34.6526 63.4878 36.8693 60.7285 36.8693C57.9692 36.8693 55.7382 34.6526 55.7382 31.9107C55.7382 29.1689 57.9692 26.9521 60.7285 26.9521C63.4878 26.9521 65.7187 29.1689 65.7187 31.9107Z" fill="#00D89E"/>
<path d="M5.10777 42.0023C3.47566 42.0023 2.14883 43.3208 2.14883 44.9425C2.14883 46.5643 3.47566 47.8827 5.10777 47.8827C9.54616 47.8827 13.5619 46.0975 16.4621 43.2041C19.374 40.3106 21.1705 36.332 21.1705 31.9218C21.1705 27.5116 19.374 23.5214 16.4621 20.6395C13.5501 17.746 9.54616 15.9609 5.10777 15.9609C3.47566 15.9609 2.14883 17.2794 2.14883 18.9011C2.14883 20.5229 3.47566 21.8413 5.10777 21.8413C7.91406 21.8413 10.4503 22.973 12.282 24.7931C14.1137 26.6132 15.2527 29.145 15.2527 31.9335C15.2527 34.7219 14.1137 37.2421 12.282 39.0622C10.4503 40.8706 7.91406 42.0023 5.10777 42.0023Z" fill="white"/>
<path fill-rule="evenodd" clip-rule="evenodd" d="M0 31.9107C0 34.6526 2.23094 36.8693 4.99026 36.8693C7.74958 36.8693 9.98052 34.6526 9.98052 31.9107C9.98052 29.1689 7.74958 26.9521 4.99026 26.9521C2.23094 26.9521 0 29.1689 0 31.9107Z" fill="#00D89E"/>
<path d="M90.2828 48.1627V22.9497L94.9208 22.168V30.7084C95.2965 30.5918 95.7544 30.4401 96.2828 30.3351C96.8112 30.2184 97.2691 30.1834 97.6801 30.1834C98.9952 30.1834 100.099 30.3701 100.956 30.7434C101.825 31.1518 102.541 31.6768 103.07 32.3885C103.598 33.1002 103.974 33.9636 104.197 34.932C104.42 35.947 104.537 37.0321 104.537 38.2338V48.1627H99.8993V38.8289C99.8993 37.1838 99.7114 35.982 99.3357 35.2703C98.9599 34.5586 98.2437 34.1853 97.1869 34.1853C96.776 34.1853 96.3533 34.2203 95.9423 34.3369C95.5313 34.4536 95.1908 34.5236 94.9208 34.5936V48.1627H90.2828Z" fill="white"/>
<path d="M116.232 44.8724C116.725 44.8724 117.218 44.8723 117.7 44.8373C118.193 44.8373 118.604 44.8023 118.944 44.7673V40.7188C118.639 40.6838 118.263 40.6021 117.852 40.5671C117.441 40.5321 117.019 40.5321 116.678 40.5321C116.185 40.5321 115.739 40.5671 115.281 40.6021C114.823 40.6721 114.447 40.7888 114.107 40.9404C113.766 41.0921 113.461 41.3138 113.273 41.5822C113.085 41.8389 112.968 42.2239 112.968 42.6672C112.968 43.4489 113.273 44.0206 113.872 44.359C114.494 44.6857 115.281 44.8724 116.232 44.8724ZM115.809 30.1016C117.277 30.1016 118.486 30.2532 119.473 30.5916C120.412 30.9299 121.211 31.4199 121.774 32.015C122.338 32.6567 122.76 33.4034 123.019 34.2668C123.289 35.1651 123.395 36.1802 123.395 37.2653V47.7541C122.714 47.9058 121.692 48.0925 120.377 48.2792C119.062 48.4659 117.547 48.5825 115.892 48.5825C114.764 48.5825 113.743 48.4659 112.839 48.2792C111.899 48.0925 111.101 47.7542 110.467 47.2641C109.821 46.8091 109.293 46.2141 108.964 45.4674C108.623 44.7557 108.436 43.8573 108.436 42.7722C108.436 41.7572 108.623 40.8938 109.034 40.1821C109.445 39.4704 109.974 38.9104 110.655 38.4903C111.336 38.082 112.122 37.7436 112.991 37.5569C113.86 37.3703 114.8 37.3003 115.739 37.3003C116.948 37.3003 118.005 37.4169 118.944 37.6036V37.0436C118.944 36.1802 118.686 35.4335 118.111 34.8385C117.547 34.2785 116.608 33.9751 115.246 33.9751C114.377 33.9751 113.508 34.0451 112.721 34.1618C111.888 34.2784 111.218 34.4185 110.725 34.6168L110.079 30.9066C110.643 30.7199 111.477 30.5332 112.533 30.3466C113.59 30.1832 114.682 30.1016 115.809 30.1016Z" fill="white"/>
<path d="M143.226 47.4159C143.156 47.4509 143.003 47.5676 142.733 47.6726C142.463 47.7892 142.087 47.9292 141.676 48.0459C141.265 48.1976 140.737 48.3026 140.126 48.4192C139.481 48.5359 138.811 48.5709 138.013 48.5709C135.864 48.5709 134.314 47.9292 133.34 46.6575C132.353 45.4208 131.872 43.589 131.872 41.1505V26.1931H126.964V22.3662H136.51V41.4772C136.51 42.679 136.733 43.4957 137.226 43.9157C137.719 44.324 138.318 44.5574 139.034 44.5574C139.974 44.5574 140.737 44.4407 141.371 44.184C142.017 43.9273 142.428 43.7757 142.616 43.694L143.226 47.4159Z" fill="white"/>
<path d="M151.798 48.1626C150.671 45.9575 149.532 43.3323 148.369 40.3338C147.195 37.3703 146.068 34.1152 145.011 30.5566H149.872C150.095 31.49 150.365 32.5051 150.706 33.5901C151.011 34.6752 151.352 35.7253 151.692 36.8103C152.033 37.8954 152.408 38.9804 152.784 39.9955C153.125 41.0105 153.465 41.9439 153.806 42.8073C154.146 41.9439 154.487 41.0105 154.898 39.9955C155.309 38.9804 155.684 37.8954 156.107 36.8103C156.483 35.7253 156.859 34.6752 157.234 33.5901C157.575 32.5051 157.88 31.49 158.103 30.5566H162.812C161.755 34.1152 160.581 37.382 159.301 40.3338C158.021 43.3323 156.812 45.9575 155.684 48.1626H151.798Z" fill="white"/>
<path d="M172.804 44.8724C173.297 44.8724 173.79 44.8723 174.272 44.8373C174.765 44.8373 175.176 44.8023 175.516 44.7673V40.7188C175.211 40.6838 174.835 40.6021 174.424 40.5671C174.013 40.5321 173.591 40.5321 173.25 40.5321C172.757 40.5321 172.311 40.5671 171.853 40.6021C171.395 40.6721 171.019 40.7888 170.679 40.9404C170.338 41.0921 170.033 41.3138 169.845 41.5822C169.657 41.8389 169.54 42.2239 169.54 42.6672C169.54 43.4489 169.845 44.0206 170.444 44.359C171.066 44.6857 171.853 44.8724 172.804 44.8724ZM172.381 30.1016C173.849 30.1016 175.058 30.2532 176.045 30.5916C176.984 30.9299 177.782 31.4199 178.346 32.015C178.91 32.6567 179.332 33.4034 179.591 34.2668C179.861 35.1651 179.966 36.1802 179.966 37.2653V47.7541C179.285 47.9058 178.264 48.0925 176.949 48.2792C175.634 48.4659 174.119 48.5825 172.463 48.5825C171.336 48.5825 170.315 48.4659 169.411 48.2792C168.471 48.0925 167.673 47.7542 167.039 47.2641C166.393 46.8091 165.865 46.2141 165.536 45.4674C165.195 44.7557 165.007 43.8573 165.007 42.7722C165.007 41.7572 165.195 40.8938 165.606 40.1821C166.017 39.4704 166.546 38.9104 167.227 38.4903C167.908 38.082 168.694 37.7436 169.563 37.5569C170.432 37.3703 171.371 37.3003 172.311 37.3003C173.52 37.3003 174.577 37.4169 175.516 37.6036V37.0436C175.516 36.1802 175.258 35.4335 174.683 34.8385C174.119 34.2785 173.18 33.9751 171.818 33.9751C170.949 33.9751 170.08 34.0451 169.293 34.1618C168.459 34.2784 167.79 34.4185 167.297 34.6168L166.651 30.9066C167.215 30.7199 168.048 30.5332 169.105 30.3466C170.162 30.1832 171.254 30.1016 172.381 30.1016Z" fill="white"/>
<path d="M195.019 45.211C195.019 46.2961 194.679 47.1594 193.998 47.7195C193.317 48.2795 192.53 48.5829 191.661 48.5829C191.203 48.5829 190.792 48.5129 190.381 48.3612C189.97 48.2095 189.63 47.9878 189.325 47.6845C188.984 47.4278 188.761 47.0428 188.573 46.6344C188.385 46.2261 188.268 45.771 188.268 45.211C188.268 44.686 188.385 44.196 188.573 43.7876C188.761 43.3792 188.984 43.0409 189.325 42.7725C189.63 42.5159 189.97 42.2825 190.381 42.1309C190.792 41.9792 191.215 41.9092 191.661 41.9092C192.53 41.9092 193.317 42.2125 193.998 42.7725C194.679 43.3326 195.019 44.161 195.019 45.211Z" fill="white"/>
<path d="M206.444 34.3725H202.405V30.5456H206.444V26.1237L211.082 25.377V30.5456H218.515V34.3725H211.082V41.4895C211.082 42.1312 211.152 42.6562 211.27 43.0646C211.387 43.4729 211.575 43.7763 211.798 43.998C212.021 44.2196 212.291 44.3713 212.632 44.453C212.972 44.523 213.313 44.5696 213.724 44.5696C214.135 44.5696 214.558 44.5697 214.933 44.5346C215.274 44.4996 215.65 44.4646 215.99 44.383C216.331 44.348 216.671 44.2313 217.047 44.1263C217.387 44.0096 217.798 43.8229 218.221 43.6362L218.867 47.6031C217.998 47.9415 217.094 48.1982 216.119 48.3498C215.098 48.5015 214.158 48.5715 213.219 48.5715C212.127 48.5715 211.188 48.5015 210.354 48.3148C209.52 48.1282 208.804 47.7898 208.24 47.2998C207.677 46.8098 207.219 46.0981 206.925 45.1647C206.62 44.2663 206.467 43.0646 206.467 41.6061V34.3725H206.444Z" fill="white"/>
<path d="M234.988 47.0078C234.988 48.4312 234.8 49.6329 234.46 50.6013C234.119 51.5347 233.626 52.3281 233.027 52.9231C232.382 53.4832 231.665 53.9032 230.843 54.1599C229.975 54.4165 229.07 54.5332 228.096 54.5332C226.886 54.5332 225.759 54.3815 224.738 54.0782C223.716 53.7748 222.706 53.4015 221.755 52.9115L223.188 49.0146C223.834 49.3529 224.585 49.6913 225.489 50.0296C226.358 50.333 227.192 50.4847 227.908 50.4847C228.695 50.4847 229.305 50.263 229.716 49.8079C230.127 49.3179 230.362 48.4545 230.362 47.2178V34.3605H223.2V30.5336H235V47.0078H234.988ZM234.425 25.4933C234.425 26.3917 234.119 27.1034 233.556 27.6284C232.992 28.1535 232.276 28.4101 231.477 28.4101C230.691 28.4101 230.01 28.1418 229.446 27.6284C228.883 27.1034 228.577 26.3917 228.577 25.4933C228.577 24.5599 228.883 23.8483 229.446 23.3232C230.01 22.7982 230.691 22.5415 231.477 22.5415C232.264 22.5415 232.98 22.7982 233.556 23.3232C234.119 23.8483 234.425 24.5599 234.425 25.4933Z" fill="white"/>
</svg>

<svg width="235" height="64" viewBox="0 0 235 64" fill="none" xmlns="http://www.w3.org/2000/svg"><path d="M43.01 5.075c0-1.622 1.327-2.94 2.96-2.94a2.952 2.952 0 012.958 2.94c0 4.41-1.796 8.4-4.708 11.282a16.04 16.04 0 01-11.355 4.679 16.02 16.02 0 01-11.354-4.679c-2.912-2.893-4.708-6.872-4.708-11.282a2.951 2.951 0 012.959-2.94 2.951 2.951 0 012.958 2.94 10.02 10.02 0 002.971 7.129 10.176 10.176 0 007.186 2.951c2.806 0 5.343-1.131 7.174-2.951a10.01 10.01 0 002.96-7.13z" fill="#fff"/><path fill-rule="evenodd" clip-rule="evenodd" d="M32.865 0c2.76 0 4.99 2.217 4.99 4.959 0 2.741-2.23 4.958-4.99 4.958-2.76 0-4.99-2.217-4.99-4.958 0-2.742 2.23-4.959 4.99-4.959z" fill="#00D89E"/><path d="M43.01 58.745c0 1.622 1.327 2.94 2.96 2.94a2.952 2.952 0 002.958-2.94c0-4.41-1.796-8.4-4.708-11.282a16.041 16.041 0 00-11.355-4.679 16.02 16.02 0 00-11.354 4.679c-2.912 2.893-4.708 6.883-4.708 11.282a2.951 2.951 0 002.959 2.94 2.951 2.951 0 002.958-2.94 10.07 10.07 0 012.971-7.14 10.176 10.176 0 017.186-2.952c2.806 0 5.343 1.132 7.174 2.952a10.057 10.057 0 012.96 7.14z" fill="#fff"/><path fill-rule="evenodd" clip-rule="evenodd" d="M32.865 63.82c2.76 0 4.99-2.217 4.99-4.959 0-2.741-2.23-4.958-4.99-4.958-2.76 0-4.99 2.217-4.99 4.958 0 2.742 2.23 4.959 4.99 4.959z" fill="#00D89E"/><path d="M60.611 42.002c1.632 0 2.959 1.319 2.959 2.94 0 1.622-1.327 2.94-2.959 2.94a16.02 16.02 0 01-11.354-4.678c-2.912-2.893-4.709-6.872-4.709-11.282s1.797-8.4 4.709-11.282a16.04 16.04 0 0111.354-4.68c1.632 0 2.959 1.32 2.959 2.941 0 1.622-1.327 2.94-2.959 2.94a10.148 10.148 0 00-7.174 2.952 10.047 10.047 0 00-2.97 7.14 10.02 10.02 0 002.97 7.13 10.209 10.209 0 007.174 2.94z" fill="#fff"/><path fill-rule="evenodd" clip-rule="evenodd" d="M65.719 31.91c0 2.743-2.231 4.96-4.99 4.96-2.76 0-4.99-2.217-4.99-4.96 0-2.741 2.23-4.958 4.99-4.958 2.759 0 4.99 2.217 4.99 4.959z" fill="#00D89E"/><path d="M5.108 42.002c-1.632 0-2.96 1.319-2.96 2.94 0 1.622 1.328 2.94 2.96 2.94a16.02 16.02 0 0011.354-4.678c2.912-2.893 4.709-6.872 4.709-11.282s-1.797-8.4-4.709-11.282a16.041 16.041 0 00-11.354-4.68c-1.632 0-2.96 1.32-2.96 2.941 0 1.622 1.328 2.94 2.96 2.94a10.15 10.15 0 017.174 2.952 10.047 10.047 0 012.97 7.14 10.02 10.02 0 01-2.97 7.13 10.188 10.188 0 01-7.174 2.94z" fill="#fff"/><path fill-rule="evenodd" clip-rule="evenodd" d="M0 31.91c0 2.743 2.23 4.96 4.99 4.96 2.76 0 4.99-2.217 4.99-4.96 0-2.741-2.23-4.958-4.99-4.958-2.76 0-4.99 2.217-4.99 4.959z" fill="#00D89E"/><path d="M90.283 48.163V22.95l4.638-.782v8.54c.375-.116.833-.268 1.362-.373a6.36 6.36 0 011.397-.152c1.315 0 2.419.187 3.276.56.869.409 1.585.934 2.114 1.646.528.711.904 1.575 1.127 2.543.223 1.015.34 2.1.34 3.302v9.929h-4.638v-9.334c0-1.645-.188-2.847-.563-3.559-.376-.711-1.092-1.085-2.15-1.085-.41 0-.833.035-1.244.152-.41.117-.751.187-1.021.257v13.569h-4.638zm25.949-3.291c.493 0 .986 0 1.468-.035.493 0 .904-.035 1.244-.07V40.72c-.305-.035-.681-.117-1.092-.152-.411-.035-.833-.035-1.174-.035-.493 0-.939.035-1.397.07a4.51 4.51 0 00-1.174.338c-.341.152-.646.374-.834.642-.188.257-.305.642-.305 1.085 0 .782.305 1.354.904 1.692.622.327 1.409.513 2.36.513zm-.423-14.77c1.468 0 2.677.151 3.664.49.939.338 1.738.828 2.301 1.423a5.967 5.967 0 011.245 2.252c.27.898.376 1.913.376 2.998v10.49a41.17 41.17 0 01-3.018.524 32.14 32.14 0 01-4.485.303 15.07 15.07 0 01-3.053-.303c-.94-.187-1.738-.525-2.372-1.015-.646-.455-1.174-1.05-1.503-1.797-.341-.711-.528-1.61-.528-2.695 0-1.015.187-1.878.598-2.59a4.687 4.687 0 011.621-1.692 7.701 7.701 0 012.336-.933c.869-.187 1.809-.257 2.748-.257 1.209 0 2.266.117 3.205.304v-.56c0-.864-.258-1.61-.833-2.205-.564-.56-1.503-.864-2.865-.864-.869 0-1.738.07-2.525.187-.833.116-1.503.257-1.996.455l-.646-3.71c.564-.187 1.398-.374 2.454-.56a21.42 21.42 0 013.276-.245zm27.417 17.314c-.07.035-.223.152-.493.257-.27.116-.646.256-1.057.373-.411.152-.939.257-1.55.373-.645.117-1.315.152-2.113.152-2.149 0-3.699-.642-4.673-1.913-.987-1.237-1.468-3.069-1.468-5.508V26.194h-4.908v-3.827h9.546v19.111c0 1.202.223 2.019.716 2.439a2.755 2.755 0 001.808.641c.94 0 1.703-.116 2.337-.373.646-.257 1.057-.408 1.245-.49l.61 3.722zm8.572.747c-1.127-2.205-2.266-4.83-3.429-7.83a117.084 117.084 0 01-3.358-9.776h4.861c.223.933.493 1.948.834 3.033.305 1.085.646 2.135.986 3.22a67.71 67.71 0 001.092 3.185 57.548 57.548 0 001.022 2.812c.34-.863.681-1.797 1.092-2.812.411-1.015.786-2.1 1.209-3.185.376-1.085.752-2.135 1.127-3.22.341-1.085.646-2.1.869-3.033h4.709c-1.057 3.558-2.231 6.825-3.511 9.777-1.28 2.998-2.489 5.623-3.617 7.829h-3.886zm21.006-3.291c.493 0 .986 0 1.468-.035.493 0 .904-.035 1.244-.07V40.72c-.305-.035-.681-.117-1.092-.152-.411-.035-.833-.035-1.174-.035-.493 0-.939.035-1.397.07a4.51 4.51 0 00-1.174.338c-.341.152-.646.374-.834.642-.188.257-.305.642-.305 1.085 0 .782.305 1.354.904 1.692.622.327 1.409.513 2.36.513zm-.423-14.77c1.468 0 2.677.151 3.664.49.939.338 1.737.828 2.301 1.423a5.967 5.967 0 011.245 2.252c.27.898.375 1.913.375 2.998v10.49c-.681.15-1.702.337-3.017.524s-2.83.303-4.486.303c-1.127 0-2.148-.116-3.052-.303-.94-.187-1.738-.525-2.372-1.015-.646-.455-1.174-1.05-1.503-1.797-.341-.711-.529-1.61-.529-2.695 0-1.015.188-1.878.599-2.59a4.687 4.687 0 011.621-1.692 7.701 7.701 0 012.336-.933c.869-.187 1.808-.257 2.748-.257 1.209 0 2.266.117 3.205.304v-.56c0-.864-.258-1.61-.833-2.205-.564-.56-1.503-.864-2.865-.864-.869 0-1.738.07-2.525.187-.834.116-1.503.257-1.996.455l-.646-3.71c.564-.187 1.397-.374 2.454-.56a21.42 21.42 0 013.276-.245zm22.638 15.109c0 1.085-.34 1.948-1.021 2.508-.681.56-1.468.864-2.337.864a3.6 3.6 0 01-1.28-.222 2.872 2.872 0 01-1.056-.676c-.341-.257-.564-.642-.752-1.05a3.306 3.306 0 01-.305-1.424c0-.525.117-1.015.305-1.423.188-.409.411-.747.752-1.015a3.54 3.54 0 011.056-.642 3.648 3.648 0 011.28-.222c.869 0 1.656.303 2.337.864.681.56 1.021 1.388 1.021 2.438zm11.425-10.838h-4.039v-3.827h4.039v-4.422l4.638-.747v5.169h7.433v3.827h-7.433v7.117c0 .641.07 1.166.188 1.575.117.408.305.711.528.933.223.222.493.373.834.455.34.07.681.117 1.092.117.411 0 .834 0 1.209-.035.341-.035.717-.07 1.057-.152.341-.035.681-.152 1.057-.257.34-.116.751-.303 1.174-.49l.646 3.967c-.869.338-1.773.595-2.748.747a19.461 19.461 0 01-2.9.221c-1.092 0-2.031-.07-2.865-.256-.834-.187-1.55-.525-2.114-1.015-.563-.49-1.021-1.202-1.315-2.135-.305-.899-.458-2.1-.458-3.559v-7.233h-.023zm28.544 12.635c0 1.423-.188 2.625-.528 3.593-.341.934-.834 1.727-1.433 2.322a6.05 6.05 0 01-2.184 1.237c-.868.257-1.773.373-2.747.373-1.21 0-2.337-.151-3.358-.455-1.022-.303-2.032-.677-2.983-1.167l1.433-3.896c.646.338 1.397.676 2.301 1.015.869.303 1.703.455 2.419.455.787 0 1.397-.222 1.808-.677.411-.49.646-1.353.646-2.59V34.36H223.2v-3.826H235v16.474h-.012zm-.563-21.515c0 .899-.306 1.61-.869 2.135-.564.526-1.28.782-2.079.782a2.93 2.93 0 01-2.031-.782c-.563-.525-.869-1.236-.869-2.135 0-.933.306-1.645.869-2.17.564-.525 1.245-.782 2.031-.782.787 0 1.503.257 2.079.782.563.525.869 1.237.869 2.17z" fill="#fff"/></svg>
